img/svg/icon-font/home.svg

<svg width="22" height="22" viewBox="0 0 22 22" fill="none" xmlns="http://www.w3.org/2000/svg">
<g clip-path="url(#clip0)">
<path d="M21.7503 10.1583L12.7961 1.14509C12.7846 1.13349 12.7727 1.12223 12.7606 1.11132C11.7828 0.233422 10.3054 0.230285 9.32387 1.10405C9.31167 1.11493 9.29981 1.12614 9.28825 1.13766L0.252399 10.1557C-0.0835306 10.491 -0.0840892 11.0352 0.251196 11.3711C0.586524 11.707 1.13064 11.7075 1.46652 11.3723L2.14852 10.6916V18.1116C2.14852 20.0071 3.69059 21.5491 5.58602 21.5491H8.67977C9.15441 21.5491 9.53915 21.1644 9.53915 20.6898V13.6859H12.547V20.6898C12.547 21.1644 12.9317 21.5491 13.4063 21.5491H16.4141C18.3096 21.5491 19.8516 20.0071 19.8516 18.1116C19.8516 17.637 19.4669 17.2523 18.9923 17.2523C18.5176 17.2523 18.1329 17.637 18.1329 18.1116C18.1329 19.0594 17.3619 19.8304 16.4141 19.8304H14.2657V12.8265C14.2657 12.3519 13.881 11.9671 13.4063 11.9671H8.67977C8.20514 11.9671 7.8204 12.3519 7.8204 12.8265V19.8304H5.58602C4.6383 19.8304 3.86727 19.0594 3.86727 18.1116V9.00227C3.86727 8.99368 3.86714 8.98512 3.86689 8.97662L10.4821 2.37443C10.8041 2.10102 11.2763 2.10205 11.5971 2.37679L18.1329 8.95573V13.8148C18.1329 14.2894 18.5176 14.6741 18.9923 14.6741C19.4669 14.6741 19.8516 14.2894 19.8516 13.8148V10.6858L20.5311 11.3697C20.699 11.5388 20.9198 11.6234 21.1407 11.6234C21.3597 11.6234 21.5788 11.5402 21.7464 11.3737C22.0831 11.0392 22.0849 10.495 21.7503 10.1583Z" fill="#4C51CB"/>
</g>
<defs>
<clipPath id="clip0">
<rect width="22" height="22" fill="white"/>
</clipPath>
</defs>
</svg>

<svg width="22" height="22" fill="none" xmlns="http://www.w3.org/2000/svg"><g clip-path="url(#clip0)"><path d="M21.75 10.158l-8.954-9.013a2.576 2.576 0 00-3.508-.007L.252 10.156a.86.86 0 001.215 1.216l.682-.68v7.42a3.441 3.441 0 003.437 3.437H8.68a.86.86 0 00.86-.86v-7.003h3.007v7.004c0 .474.385.86.86.86h3.007a3.441 3.441 0 003.438-3.438.86.86 0 10-1.72 0 1.72 1.72 0 01-1.718 1.718h-2.148v-7.003a.86.86 0 00-.86-.86H8.68a.86.86 0 00-.86.86v7.003H5.586a1.72 1.72 0 01-1.719-1.718V8.977l6.615-6.603a.859.859 0 011.115.003l6.536 6.579v4.859a.86.86 0 101.719 0v-3.13l.68.685a.856.856 0 001.214.004.86.86 0 00.004-1.216z" fill="#4C51CB"/></g><defs><clipPath id="clip0"><path fill="#fff" d="M0 0h22v22H0z"/></clipPath></defs></svg>
